static/assets/images/icons/news.svg

<svg width="256" height="256" viewBox="0 0 256 256" fill="none" xmlns="http://www.w3.org/2000/svg">
<path d="M73.5 44C67.9305 44 62.589 46.2125 58.6508 50.1508C54.7125 54.089 52.5 59.4305 52.5 65V191C49.7152 191 47.0445 189.894 45.0754 187.925C43.1062 185.955 42 183.285 42 180.5V75.5H36.75C32.5728 75.5 28.5668 77.1594 25.6131 80.1131C22.6594 83.0668 21 87.0728 21 91.25V196.25C21 200.427 22.6594 204.433 25.6131 207.387C28.5668 210.341 32.5728 212 36.75 212H210C215.57 212 220.911 209.788 224.849 205.849C228.788 201.911 231 196.57 231 191V65C231 59.4305 228.788 54.089 224.849 50.1508C220.911 46.2125 215.57 44 210 44H73.5ZM84 65H199.5V107H84V65ZM84 128H147V138.5H84V128ZM84 149H147V159.5H84V149ZM84 170H147V180.5H84V170ZM157.5 128H199.5V180.5H157.5V128Z" fill="black"/>
</svg>

<svg xmlns="http://www.w3.org/2000/svg" fill="none" viewBox="0 0 256 256"><path fill="#000" d="M73.5 44a21 21 0 0 0-21 21v126A10.5 10.5 0 0 1 42 180.5v-105h-5.25A15.75 15.75 0 0 0 21 91.25v105A15.75 15.75 0 0 0 36.75 212H210c5.57 0 10.911-2.212 14.849-6.151A21 21 0 0 0 231 191V65a20.997 20.997 0 0 0-21-21zM84 65h115.5v42H84zm0 63h63v10.5H84zm0 21h63v10.5H84zm0 21h63v10.5H84zm73.5-42h42v52.5h-42z"/></svg>
